X:16904
T:The Kilt is My Delight
S:Logan's Collection
M:C|
L:1/8
K:D
% major/mixolydian/dorian pentatonic, D-final CG-gap
e|A>AA>B A>Bd>f|e>de>f d>BB<e|   A>AA>B A>Bd>f|ede>f  d2d:|
% major/mixolydian hexatonic, D-final C-gap
e|g2 a>g f2 a>f|e>de>f d>BB<e|[1 g2 a>g f2 a>f|ede>f  d2d:|
                              [2 A>AA>B A>Bd>f|e>de>f d2d|]
